X:261
M:C|
L:1/8
K:G
|:d|gfga gbag|fdfg fagf|edef gfed|B2 e>f efge|dBGB B/c/d cB|
egfa g2fe|dcBA GFGA|B2G2G2:|

